X: 494
T: Cowboy Waltz
C:Traditional, transcribed by Jim Garber
B: jims roots
M:3/4
L:1/8
Q: 1/4=100
K:D
V:1 
"D"AB cd e=f | f6 | f6 | fa fe dc | d2 A2 d2 | "G"B4 Bd | B2 A2 G2 | A2 AB AG |
"D"F3A Bd | f6 | f6 | fa fe dc | d2 e2 f2 | "E"e6 | f4 f2 | "A7"ef ed cB | A2 c2 e2 |
"D"f6 | f6 | fa fe dc | d2 A2 d2 | "G"B4 Bd | BA z2 G2 | "D"A2 AB AG | F3A Bc |
d2 c2 d2 | "A7"e2 f2 g2 | a2 f2 d2 | "G"g2 f2 e2 | "D"f3g fz | "A7"e3f ez |
"D"d3B AF | D3A BA |: D2 F2 A2 | d2 c2 d2 | "Em"e2 d2 g2 | "G"B3B cB |
"A7"A2 c2 e2 | [1 a4 ^ga | "G"b2 a2 g2 | "D"f3A BA :|[2 "A7"g2 f2 e2 | "D"d6 ||
% abcbook-tune_id 6298c2451676e6b375e58b03


% abcbook-boost 0
% abcbook-tablature 
% abcbook-transpose 
% abcbook-lastupdated 1654178373832
% abcbook-soundfonts 
% abcbook-repeats 1


